polaris-icons/icons/new-icons/IqMajor.svg

<svg width="20" height="20" viewBox="0 0 20 20" fill="none" xmlns="http://www.w3.org/2000/svg">
<path d="M14.5 5.25C15.0523 5.25 15.5 4.80228 15.5 4.25C15.5 3.69772 15.0523 3.25 14.5 3.25C13.9477 3.25 13.5 3.69772 13.5 4.25C13.5 4.80228 13.9477 5.25 14.5 5.25Z" fill="#4A4A4A"/>
<path fill-rule="evenodd" clip-rule="evenodd" d="M10.128 12.5H8C5.51472 12.5 3.5 10.4853 3.5 8V7.75C3.5 5.40279 5.40279 3.5 7.75 3.5H11.75C12.1642 3.5 12.5 3.83579 12.5 4.25C12.5 4.66421 12.1642 5 11.75 5H7.75C6.23122 5 5 6.23122 5 7.75V8C5 9.65685 6.34315 11 8 11H10.128C10.4369 10.1261 11.2703 9.5 12.25 9.5C13.4926 9.5 14.5 10.5074 14.5 11.75C14.5 12.9926 13.4926 14 12.25 14C11.2703 14 10.4369 13.3739 10.128 12.5ZM11.5 11.75C11.5 11.3358 11.8358 11 12.25 11C12.6642 11 13 11.3358 13 11.75C13 12.1642 12.6642 12.5 12.25 12.5C11.8358 12.5 11.5 12.1642 11.5 11.75Z" fill="#4A4A4A"/>
<path fill-rule="evenodd" clip-rule="evenodd" d="M12.25 16.25C14.7353 16.25 16.75 14.2353 16.75 11.75C16.75 9.26472 14.7353 7.25 12.25 7.25H10.122C9.81309 6.37611 8.97966 5.75 8 5.75C6.75736 5.75 5.75 6.75736 5.75 8C5.75 9.24264 6.75736 10.25 8 10.25C8.97966 10.25 9.81309 9.62389 10.122 8.75H12.25C13.9069 8.75 15.25 10.0931 15.25 11.75C15.25 13.4069 13.9069 14.75 12.25 14.75H8.5C8.08579 14.75 7.75 15.0858 7.75 15.5C7.75 15.9142 8.08579 16.25 8.5 16.25H12.25ZM8 7.25C8.41421 7.25 8.75 7.58579 8.75 8C8.75 8.41421 8.41421 8.75 8 8.75C7.58579 8.75 7.25 8.41421 7.25 8C7.25 7.58579 7.58579 7.25 8 7.25Z" fill="#4A4A4A"/>
<path d="M6.75 15.5C6.75 16.0523 6.30228 16.5 5.75 16.5C5.19772 16.5 4.75 16.0523 4.75 15.5C4.75 14.9477 5.19772 14.5 5.75 14.5C6.30228 14.5 6.75 14.9477 6.75 15.5Z" fill="#4A4A4A"/>
</svg>

<svg viewBox="0 0 20 20" xmlns="http://www.w3.org/2000/svg"><path d="M14.5 5.25a1 1 0 1 0 0-2 1 1 0 0 0 0 2Z" fill="#5C5F62"/><path fill-rule="evenodd" d="M10.128 12.5h-2.128a4.5 4.5 0 0 1-4.5-4.5v-.25a4.25 4.25 0 0 1 4.25-4.25h4a.75.75 0 0 1 0 1.5h-4a2.75 2.75 0 0 0-2.75 2.75v.25a3 3 0 0 0 3 3h2.128a2.251 2.251 0 1 1 0 1.5Zm1.372-.75a.75.75 0 1 1 1.5 0 .75.75 0 0 1-1.5 0Z" fill="#5C5F62"/><path fill-rule="evenodd" d="M12.25 16.25a4.5 4.5 0 1 0 0-9h-2.128a2.251 2.251 0 1 0 0 1.5h2.128a3 3 0 1 1 0 6h-3.75a.75.75 0 0 0 0 1.5h3.75Zm-4.25-9a.75.75 0 1 1 0 1.5.75.75 0 0 1 0-1.5Z" fill="#5C5F62"/><path d="M6.75 15.5a1 1 0 1 1-2 0 1 1 0 0 1 2 0Z" fill="#5C5F62"/></svg>
